X: 86
T:Juice of the Barley
M:6/8
L:1/8
S:Playford
K:C
A2 A e2 d|efg G2 G| A2 A e2 c| A3 c3| A2 A e2 d| efg G2 G| A2 A e2 c |A3 c3:|
|:c2 c c2 B/2c/2|d2 d d2 d| e2 e a2g| e3 g3| c2 c c2 B/2c/2| d2 d d>e f|e>dc BcG| A3 e3:|

